X:9
T:Magog Mazurka
C:Chris Walshaw
R:mazurka
M:3/4
K:F
B2 BA BG|A2 AG A^F|G2 AG ^FE|^F2 DF GA|
B2 BA BG|A2 AG A^F|G2 A^F DF|G3 ^FGA:|
B2 BA Bd|c6|dc BA GB|cB AG ^FA|
B2 BA Bd|c6|dc BA G^F|G3 ^FGA:|

